;FLAVOR:Marlin
;TIME:14493
;Filament used: 21.7762m
;Layer height: 0.28
;MINX:75.335
;MINY:24.335
;MINZ:0.2
;MAXX:143.8
;MAXY:195.665
;MAXZ:33.8
;Generated with Cura_SteamEngine 4.5.0
M140 S50
M105
M190 S50
M104 S200
M105
M109 S200
M82 ;absolute extrusion mode
M201 X500.00 Y500.00 Z100.00 E5000.00 ;Setup machine max acceleration
M203 X500.00 Y500.00 Z10.00 E50.00 ;Setup machine max feedrate
M204 P500.00 R1000.00 T500.00 ;Setup Print/Retract/Travel acceleration
M205 X8.00 Y8.00 Z0.40 E5.00 ;Setup Jerk
M220 S100 ;Reset Feedrate
M221 S100 ;Reset Flowrate

G28 ;Home

G92 E0 ;Reset Extruder
G1 Z2.0 F3000 ;Move Z Axis up
G1 X10.1 Y20 Z0.28 F5000.0 ;Move to start position
G1 X10.1 Y200.0 Z0.28 F1500.0 E15 ;Draw the first line
G1 X10.4 Y200.0 Z0.28 F5000.0 ;Move to side a little
G1 X10.4 Y20 Z0.28 F1500.0 E30 ;Draw the second line
G92 E0 ;Reset Extruder
G1 Z2.0 F3000 ;Move Z Axis up

G92 E0
G92 E0
G1 F2700 E-5
;LAYER_COUNT:121
;LAYER:0
M107
;MESH:Stand_Electronics_Front.stl
G0 F6000 X83 Y147.067 Z0.2
;TYPE:WALL-INNER
G1 F2700 E0
G1 F1200 X137 Y147.067 E1.79605
G1 X137 Y73.767 E4.23402
G1 X83 Y73.767 E6.03006
G1 X83 Y147.067 E8.46803
G0 F6000 X83.4 Y146.667
G1 F1200 X136.6 Y146.667 E10.23747
G1 X136.6 Y74.167 E12.64883
G1 X83.4 Y74.167 E14.41827
G1 X83.4 Y146.667 E16.82963
G0 F6000 X83.8 Y146.267
;TYPE:WALL-OUTER
G1 F1200 X136.2 Y146.267 E18.57246
G1 X136.2 Y74.567 E20.95721
G1 X83.8 Y74.567 E22.70004
G1 X83.8 Y146.267 E25.08479
G1 F2700 E20.08479
G0 F6000 X83.5 Y146.267
G0 X82.83 Y145.14
G0 X84.665 Y145.14
G0 X75.335 Y147.263
G0 X77.21 Y147.263
G0 X77 Y194
;TYPE:WALL-INNER
G1 F2700 E25.08479
G1 F1200 X77 Y26 E30.6725
G1 X143 Y26 E32.86767
G1 X143 Y194 E38.45537
G1 X77 Y194 E40.65054
G0 F6000 X76.6 Y194.4
G1 F1200 X76.6 Y25.6 E46.26485
G1 X143.4 Y25.6 E48.48662
G1 X143.4 Y194.4 E54.10094
G1 X76.6 Y194.4 E56.32271
G0 F6000 X76.2 Y194.8
;TYPE:WALL-OUTER
G1 F1200 X76.2 Y25.2 E61.96363
G1 X143.8 Y25.2 E64.21202
G1 X143.8 Y194.8 E69.85294
G1 X76.2 Y194.8 E72.10132
G0 F6000 X76.47 Y194.53
G0 X77.11 Y193.61
G0 X77.39 Y193.61
;TYPE:SKIN
G1 F1200 X77.39 Y26.39 E77.66308
G1 X142.61 Y26.39 E79.83231
G1 X142.61 Y193.61 E85.39407
G1 X77.39 Y193.61 E87.56329
G1 F2700 E82.56329
G0 F6000 X77.11 Y193.61
G0 X77.21 Y147.207
G0 X75.335 Y147.207
G0 X84.665 Y145.14
G0 X82.83 Y145.14
G0 X82.89 Y147.207
G0 X82.61 Y147.457
G1 F2700 E87.56329
G1 F1200 X137.39 Y147.457 E89.38528
G1 X137.39 Y73.377 E91.84919
G1 X82.61 Y73.377 E93.67118
G1 X82.61 Y147.457 E96.13509
G1 F2700 E91.13509
G0 F6000 X82.89 Y147.207
G0 X82.83 Y145.14
G0 X84.665 Y145.14
G0 X82.804 Y195.665
G0 X82.804 Y193.79
G0 X78.049 Y193.89
G0 X78.049 Y193.448
G1 F2700 E96.13509
G1 F1200 X77.549 Y192.948 E96.15861
G0 F6000 X77.549 Y192.383
G1 F1200 X78.614 Y193.448 E96.20871
G0 F6000 X79.18 Y193.448
G1 F1200 X77.549 Y191.817 E96.28542
G0 F6000 X77.549 Y191.251
G1 F1200 X79.746 Y193.448 E96.38876
G0 F6000 X80.311 Y193.448
G1 F1200 X77.549 Y190.686 E96.51868
G0 F6000 X77.549 Y190.12
G1 F1200 X80.877 Y193.448 E96.67522
G0 F6000 X81.443 Y193.448
G1 F1200 X77.549 Y189.554 E96.85838
G0 F6000 X77.549 Y188.989
G1 F1200 X82.008 Y193.448 E97.06812
G0 F6000 X82.574 Y193.448
G1 F1200 X77.549 Y188.423 E97.30448
G0 F6000 X77.549 Y187.857
G1 F1200 X83.14 Y193.448 E97.56746
G0 F6000 X83.705 Y193.448
G1 F1200 X77.549 Y187.292 E97.85702
G0 F6000 X77.549 Y186.726
G1 F1200 X84.271 Y193.448 E98.1732
G0 F6000 X84.837 Y193.448
G1 F1200 X77.549 Y186.16 E98.51601
G0 F6000 X77.549 Y185.595
G1 F1200 X85.402 Y193.448 E98.88539
G0 F6000 X85.968 Y193.448
G1 F1200 X77.549 Y185.029 E99.28139
G0 F6000 X77.549 Y184.463
G1 F1200 X86.534 Y193.448 E99.70402
G0 F6000 X87.099 Y193.448
G1 F1200 X77.549 Y183.897 E100.15325
G0 F6000 X77.549 Y183.332
G1 F1200 X87.665 Y193.448 E100.62907
G0 F6000 X88.231 Y193.448
G1 F1200 X77.549 Y182.766 E101.13152
G0 F6000 X77.549 Y182.2
G1 F1200 X88.797 Y193.448 E101.66059
G0 F6000 X89.362 Y193.448
G1 F1200 X77.549 Y181.635 E102.21624
G0 F6000 X77.549 Y181.069
G1 F1200 X89.928 Y193.448 E102.79851
G0 F6000 X90.494 Y193.448
G1 F1200 X77.549 Y180.503 E103.4074
G0 F6000 X77.549 Y179.938
G1 F1200 X91.059 Y193.448 E104.04287
G0 F6000 X91.625 Y193.448
G1 F1200 X77.549 Y179.372 E104.70497
G0 F6000 X77.549 Y178.806
G1 F1200 X92.191 Y193.448 E105.39368
G0 F6000 X92.756 Y193.448
G1 F1200 X77.549 Y178.241 E106.10897
G0 F6000 X77.549 Y177.675
G1 F1200 X93.322 Y193.448 E106.85088
G0 F6000 X93.888 Y193.448
G1 F1200 X77.549 Y177.109 E107.61942
G0 F6000 X77.549 Y176.544
G1 F1200 X94.453 Y193.448 E108.41453
G0 F6000 X95.019 Y193.448
G1 F1200 X77.549 Y175.978 E109.23627
G0 F6000 X77.549 Y175.412
G1 F1200 X95.585 Y193.448 E110.08463
G0 F6000 X96.15 Y193.448
G1 F1200 X77.549 Y174.847 E110.95956
G0 F6000 X77.549 Y174.281
G1 F1200 X96.716 Y193.448 E111.86112
G0 F6000 X97.282 Y193.448
G1 F1200 X77.549 Y173.715 E112.7893
G0 F6000 X77.549 Y173.149
G1 F1200 X97.848 Y193.448 E113.7441
G0 F6000 X98.413 Y193.448
G1 F1200 X77.549 Y172.584 E114.72548
G0 F6000 X77.549 Y172.018
G1 F1200 X98.979 Y193.448 E115.73348
G0 F6000 X99.545 Y193.448
G1 F1200 X77.549 Y171.452 E116.7681
G0 F6000 X77.549 Y170.887
G1 F1200 X100.11 Y193.448 E117.8293
G0 F6000 X100.676 Y193.448
G1 F1200 X77.549 Y170.321 E118.91713
G0 F6000 X77.549 Y169.755
G1 F1200 X101.242 Y193.448 E120.03157
G0 F6000 X101.807 Y193.448
G1 F1200 X77.549 Y169.19 E121.1726
G0 F6000 X77.549 Y168.624
G1 F1200 X102.373 Y193.448 E122.34024
G0 F6000 X102.939 Y193.448
G1 F1200 X77.549 Y168.058 E123.53451
G0 F6000 X77.549 Y167.493
G1 F1200 X103.504 Y193.448 E124.75535
G0 F6000 X104.07 Y193.448
G1 F1200 X77.549 Y166.927 E126.00282
G0 F6000 X77.549 Y166.361
G1 F1200 X104.636 Y193.448 E127.27691
G0 F6000 X105.201 Y193.448
G1 F1200 X77.549 Y165.796 E128.57757
G0 F6000 X77.549 Y165.23
G1 F1200 X105.767 Y193.448 E129.90486
G0 F6000 X106.333 Y193.448
G1 F1200 X77.549 Y164.664 E131.25877
G0 F6000 X77.549 Y164.098
G1 F1200 X106.898 Y193.448 E132.63928
G0 F6000 X107.464 Y193.448
G1 F1200 X77.549 Y163.533 E134.04639
G0 F6000 X77.549 Y162.967
G1 F1200 X108.03 Y193.448 E135.48013
G0 F6000 X108.596 Y193.448
G1 F1200 X77.549 Y162.401 E136.94048
G0 F6000 X77.549 Y161.836
G1 F1200 X109.161 Y193.448 E138.42741
G0 F6000 X109.727 Y193.448
G1 F1200 X77.549 Y161.27 E139.94097
G0 F6000 X77.549 Y160.704
G1 F1200 X110.293 Y193.448 E141.48114
G0 F6000 X110.858 Y193.448
G1 F1200 X77.549 Y160.139 E143.0479
G0 F6000 X77.549 Y159.573
G1 F1200 X111.424 Y193.448 E144.64127
G0 F6000 X111.99 Y193.448
G1 F1200 X77.549 Y159.007 E146.26127
G0 F6000 X77.549 Y158.442
G1 F1200 X112.555 Y193.448 E147.90785
G0 F6000 X113.121 Y193.448
G1 F1200 X77.549 Y157.876 E149.58105
G0 F6000 X77.549 Y157.31
G1 F1200 X113.687 Y193.448 E151.28087
G0 F6000 X114.252 Y193.448
G1 F1200 X77.549 Y156.745 E153.00726
G0 F6000 X77.549 Y156.179
G1 F1200 X114.818 Y193.448 E154.76028
G0 F6000 X115.384 Y193.448
G1 F1200 X77.549 Y155.613 E156.53993
G0 F6000 X77.549 Y155.048
G1 F1200 X115.949 Y193.448 E158.34614
G0 F6000 X116.515 Y193.448
G1 F1200 X77.549 Y154.482 E160.17898
G0 F6000 X77.549 Y153.916
G1 F1200 X117.081 Y193.448 E162.03845
G0 F6000 X117.647 Y193.448
G1 F1200 X77.549 Y153.35 E163.92454
G0 F6000 X77.549 Y152.785
G1 F1200 X118.212 Y193.448 E165.8372
G0 F6000 X118.778 Y193.448
G1 F1200 X77.549 Y152.219 E167.77648
G0 F6000 X77.549 Y151.653
G1 F1200 X119.344 Y193.448 E169.74239
G0 F6000 X119.909 Y193.448
G1 F1200 X77.549 Y151.088 E171.73488
G0 F6000 X77.549 Y150.522
G1 F1200 X120.475 Y193.448 E173.75398
G0 F6000 X121.041 Y193.448
G1 F1200 X77.549 Y149.956 E175.79972
G0 F6000 X77.549 Y149.391
G1 F1200 X121.606 Y193.448 E177.87202
G0 F6000 X122.172 Y193.448
G1 F1200 X77.549 Y148.825 E179.97095
G0 F6000 X77.549 Y148.259
G1 F1200 X122.738 Y193.448 E182.0965
G0 F6000 X123.303 Y193.448
G1 F1200 X77.549 Y147.694 E184.24863
G0 F6000 X77.549 Y147.128
G1 F1200 X123.869 Y193.448 E186.42738
G0 F6000 X124.435 Y193.448
G1 F1200 X77.549 Y146.562 E188.63275
G0 F6000 X77.549 Y145.997
G1 F1200 X125 Y193.448 E190.8647
G0 F6000 X125.566 Y193.448
G1 F1200 X77.549 Y145.431 E193.12328
G0 F6000 X77.549 Y144.865
G1 F1200 X126.132 Y193.448 E195.40847
G0 F6000 X126.697 Y193.448
G1 F1200 X77.549 Y144.299 E197.72027
G0 F6000 X77.549 Y143.734
G1 F1200 X127.263 Y193.448 E200.05866
G0 F6000 X127.829 Y193.448
G1 F1200 X77.549 Y143.168 E202.42368
G0 F6000 X77.549 Y142.602
G1 F1200 X82.449 Y147.503 E202.65418
G0 F6000 X82.562 Y147.616
G1 F1200 X128.395 Y193.448 E204.81
G0 F6000 X128.96 Y193.448
G1 F1200 X83.128 Y147.616 E206.9658
G0 F6000 X83.693 Y147.616
G1 F1200 X129.526 Y193.448 E209.12162
G0 F6000 X130.092 Y193.448
G1 F1200 X84.259 Y147.616 E211.27744
G0 F6000 X84.825 Y147.616
G1 F1200 X130.657 Y193.448 E213.43324
G0 F6000 X131.223 Y193.448
G1 F1200 X85.39 Y147.616 E215.58906
G0 F6000 X85.956 Y147.616
G1 F1200 X131.789 Y193.448 E217.74488
G0 F6000 X132.354 Y193.448
G1 F1200 X86.522 Y147.616 E219.90067
G0 F6000 X87.087 Y147.616
G1 F1200 X132.92 Y193.448 E222.05649
G0 F6000 X133.486 Y193.448
G1 F1200 X87.653 Y147.616 E224.21231
G0 F6000 X88.219 Y147.616
G1 F1200 X134.051 Y193.448 E226.36811
G0 F6000 X134.617 Y193.448
G1 F1200 X88.785 Y147.616 E228.52391
G0 F6000 X89.35 Y147.616
G1 F1200 X135.183 Y193.448 E230.67973
G0 F6000 X135.748 Y193.448
G1 F1200 X89.916 Y147.616 E232.83553
G0 F6000 X90.482 Y147.616
G1 F1200 X136.314 Y193.448 E234.99132
G0 F6000 X136.88 Y193.448
G1 F1200 X91.047 Y147.616 E237.14714
G0 F6000 X91.613 Y147.616
G1 F1200 X137.446 Y193.448 E239.30296
G0 F6000 X138.011 Y193.448
G1 F1200 X92.179 Y147.616 E241.45876
G0 F6000 X92.744 Y147.616
G1 F1200 X138.577 Y193.448 E243.61458
G0 F6000 X139.143 Y193.448
G1 F1200 X93.31 Y147.616 E245.7704
G0 F6000 X93.876 Y147.616
G1 F1200 X139.708 Y193.448 E247.9262
G0 F6000 X140.274 Y193.448
G1 F1200 X94.441 Y147.616 E250.08202
G0 F6000 X95.007 Y147.616
G1 F1200 X140.84 Y193.448 E252.23784
G0 F6000 X141.405 Y193.448
G1 F1200 X95.573 Y147.616 E254.39363
G0 F6000 X96.138 Y147.616
G1 F1200 X141.971 Y193.448 E256.54945
G0 F6000 X142.45 Y193.361
G1 F1200 X96.704 Y147.616 E258.70118
G0 F6000 X97.27 Y147.616
G1 F1200 X142.45 Y192.796 E260.82631
G0 F6000 X142.45 Y192.23
G1 F1200 X97.836 Y147.616 E262.92482
G0 F6000 X98.401 Y147.616
G1 F1200 X142.45 Y191.664 E264.99672
G0 F6000 X142.45 Y191.099
G1 F1200 X98.967 Y147.616 E267.04203
G0 F6000 X99.533 Y147.616
G1 F1200 X142.45 Y190.533 E269.06071
G0 F6000 X142.45 Y189.967
G1 F1200 X100.098 Y147.616 E271.0528
G0 F6000 X100.664 Y147.616
G1 F1200 X142.45 Y189.402 E273.01828
G0 F6000 X142.45 Y188.836
G1 F1200 X101.23 Y147.616 E274.95715
G0 F6000 X101.795 Y147.616
G1 F1200 X142.45 Y188.27 E276.86941
G0 F6000 X142.45 Y187.705
G1 F1200 X102.361 Y147.616 E278.75507
G0 F6000 X102.927 Y147.616
G1 F1200 X142.45 Y187.139 E280.61411
G0 F6000 X142.45 Y186.573
G1 F1200 X103.492 Y147.616 E282.44656
G0 F6000 X104.058 Y147.616
G1 F1200 X142.45 Y186.007 E284.25237
G0 F6000 X142.45 Y185.442
G1 F1200 X104.624 Y147.616 E286.03159
G0 F6000 X105.189 Y147.616
G1 F1200 X142.45 Y184.876 E287.78421
G0 F6000 X142.45 Y184.31
G1 F1200 X105.755 Y147.616 E289.51021
G0 F6000 X106.321 Y147.616
G1 F1200 X142.45 Y183.745 E291.20961
G0 F6000 X142.45 Y183.179
G1 F1200 X106.886 Y147.616 E292.88241
G0 F6000 X107.452 Y147.616
G1 F1200 X142.45 Y182.613 E294.52858
G0 F6000 X142.45 Y182.048
G1 F1200 X108.018 Y147.616 E296.14816
G0 F6000 X108.584 Y147.616
G1 F1200 X142.45 Y181.482 E297.74111
G0 F6000 X142.45 Y180.916
G1 F1200 X109.149 Y147.616 E299.30746
G0 F6000 X109.715 Y147.616
G1 F1200 X142.45 Y180.351 E300.84722
G0 F6000 X142.45 Y179.785
G1 F1200 X110.281 Y147.616 E302.36035
G0 F6000 X110.846 Y147.616
G1 F1200 X142.45 Y179.219 E303.84688
G0 F6000 X142.45 Y178.654
G1 F1200 X111.412 Y147.616 E305.30681
G0 F6000 X111.978 Y147.616
G1 F1200 X142.45 Y178.088 E306.74012
G0 F6000 X142.45 Y177.522
G1 F1200 X112.543 Y147.616 E308.14683
G0 F6000 X113.109 Y147.616
G1 F1200 X142.45 Y176.957 E309.52694
G0 F6000 X142.45 Y176.391
G1 F1200 X113.675 Y147.616 E310.88043
G0 F6000 X114.24 Y147.616
G1 F1200 X142.45 Y175.825 E312.20732
G0 F6000 X142.45 Y175.259
G1 F1200 X114.806 Y147.616 E313.50758
G0 F6000 X115.372 Y147.616
G1 F1200 X142.45 Y174.694 E314.78125
G0 F6000 X142.45 Y174.128
G1 F1200 X115.937 Y147.616 E316.02832
G0 F6000 X116.503 Y147.616
G1 F1200 X142.45 Y173.562 E317.24876
G0 F6000 X142.45 Y172.997
G1 F1200 X117.069 Y147.616 E318.4426
G0 F6000 X117.634 Y147.616
G1 F1200 X142.45 Y172.431 E319.60985
G0 F6000 X142.45 Y171.865
G1 F1200 X118.2 Y147.616 E320.75047
G0 F6000 X118.766 Y147.616
G1 F1200 X142.45 Y171.3 E321.86449
G0 F6000 X142.45 Y170.734
G1 F1200 X119.332 Y147.616 E322.95189
G0 F6000 X119.897 Y147.616
G1 F1200 X142.45 Y170.168 E324.01269
G0 F6000 X142.45 Y169.603
G1 F1200 X120.463 Y147.616 E325.0469
G0 F6000 X121.029 Y147.616
G1 F1200 X142.45 Y169.037 E326.05447
G0 F6000 X142.45 Y168.471
G1 F1200 X121.594 Y147.616 E327.03545
G0 F6000 X122.16 Y147.616
G1 F1200 X142.45 Y167.906 E327.98983
G0 F6000 X142.45 Y167.34
G1 F1200 X122.726 Y147.616 E328.91759
G0 F6000 X123.291 Y147.616
G1 F1200 X142.45 Y166.774 E329.81875
G0 F6000 X142.45 Y166.208
G1 F1200 X123.857 Y147.616 E330.69328
G0 F6000 X124.423 Y147.616
G1 F1200 X142.45 Y165.643 E331.54121
G0 F6000 X142.45 Y165.077
G1 F1200 X124.988 Y147.616 E332.36255
G0 F6000 X125.554 Y147.616
G1 F1200 X142.45 Y164.511 E333.15726
G0 F6000 X142.45 Y163.946
G1 F1200 X126.12 Y147.616 E333.92538
G0 F6000 X126.685 Y147.616
G1 F1200 X142.45 Y163.38 E334.66689
G0 F6000 X142.45 Y162.814
G1 F1200 X127.251 Y147.616 E335.38178
G0 F6000 X127.817 Y147.616
G1 F1200 X142.45 Y162.249 E336.07007
G0 F6000 X142.45 Y161.683
G1 F1200 X128.383 Y147.616 E336.73174
G0 F6000 X128.948 Y147.616
G1 F1200 X142.45 Y161.117 E337.36681
G0 F6000 X142.45 Y160.552
G1 F1200 X129.514 Y147.616 E337.97528
G0 F6000 X130.08 Y147.616
G1 F1200 X142.45 Y159.986 E338.55713
G0 F6000 X142.45 Y159.42
G1 F1200 X130.645 Y147.616 E339.11237
G0 F6000 X131.211 Y147.616
G1 F1200 X142.45 Y158.855 E339.64102
G0 F6000 X142.45 Y158.289
G1 F1200 X131.777 Y147.616 E340.14305
G0 F6000 X132.342 Y147.616
G1 F1200 X142.45 Y157.723 E340.61847
G0 F6000 X142.45 Y157.158
G1 F1200 X132.908 Y147.616 E341.0673
G0 F6000 X133.474 Y147.616
G1 F1200 X142.45 Y156.592 E341.4895
G0 F6000 X142.45 Y156.026
G1 F1200 X134.039 Y147.616 E341.88511
G0 F6000 X134.605 Y147.616
G1 F1200 X142.45 Y155.46 E342.25409
G0 F6000 X142.45 Y154.895
G1 F1200 X135.171 Y147.616 E342.59647
G0 F6000 X135.736 Y147.616
G1 F1200 X142.45 Y154.329 E342.91225
G0 F6000 X142.45 Y153.763
G1 F1200 X136.302 Y147.616 E343.20141
G0 F6000 X136.868 Y147.616
G1 F1200 X142.45 Y153.198 E343.46397
G0 F6000 X142.45 Y152.632
G1 F1200 X137.433 Y147.616 E343.69993
G0 F6000 X137.549 Y147.165
G1 F1200 X142.45 Y152.066 E343.93046
G0 F6000 X142.45 Y151.501
G1 F1200 X137.549 Y146.6 E344.16099
G0 F6000 X137.549 Y146.034
G1 F1200 X142.45 Y150.935 E344.39152
G0 F6000 X142.45 Y150.369
G1 F1200 X137.549 Y145.468 E344.62204
G0 F6000 X137.549 Y144.903
G1 F1200 X142.45 Y149.804 E344.85257
G0 F6000 X142.45 Y149.238
G1 F1200 X137.549 Y144.337 E345.0831
G0 F6000 X137.549 Y143.771
G1 F1200 X142.45 Y148.672 E345.31363
G0 F6000 X142.45 Y148.107
G1 F1200 X137.549 Y143.206 E345.54416
G0 F6000 X137.549 Y142.64
G1 F1200 X142.45 Y147.541 E345.77468
G0 F6000 X142.45 Y146.975
G1 F1200 X137.549 Y142.074 E346.00521
G0 F6000 X137.549 Y141.509
G1 F1200 X142.45 Y146.409 E346.23572
G0 F6000 X142.45 Y145.844
G1 F1200 X137.549 Y140.943 E346.46625
G0 F6000 X137.549 Y140.377
G1 F1200 X142.45 Y145.278 E346.69677
G0 F6000 X142.45 Y144.712
G1 F1200 X137.549 Y139.811 E346.9273
G0 F6000 X137.549 Y139.246
G1 F1200 X142.45 Y144.147 E347.15783
G0 F6000 X142.45 Y143.581
G1 F1200 X137.549 Y138.68 E347.38836
G0 F6000 X137.549 Y138.114
G1 F1200 X142.45 Y143.015 E347.61889
G0 F6000 X142.45 Y142.45
G1 F1200 X137.549 Y137.549 E347.84941
G0 F6000 X137.549 Y136.983
G1 F1200 X142.45 Y141.884 E348.07994
G0 F6000 X142.45 Y141.318
G1 F1200 X137.549 Y136.417 E348.31047
G0 F6000 X137.549 Y135.852
G1 F1200 X142.45 Y140.753 E348.541
G0 F6000 X142.45 Y140.187
G1 F1200 X137.549 Y135.286 E348.77153
G0 F6000 X137.549 Y134.72
G1 F1200 X142.45 Y139.621 E349.00205
